symbols/web/drive_file_move_rtl/materialsymbolsoutlined/drive_file_move_rtl_wght700gradN25_48px.svg

<svg xmlns="http://www.w3.org/2000/svg" height="48" width="48"><path d="m23.3 33.15 2.1-2.05-3.7-3.7h10.2v-2.85H21.7l3.6-3.7-2-2.05-7.15 7.2Zm-15.65 7.9q-1.95 0-3.275-1.35T3.05 36.45V11.1q0-1.85 1.325-3.25t3.275-1.4h13l3.4 3.45H40.5q1.85 0 3.225 1.375T45.1 14.5v21.95q0 1.9-1.375 3.25T40.5 41.05Zm0-29.95v25.35H40.5V14.5H22.15l-3.4-3.4H7.65Zm0 0V36.45Z"/></svg>

<svg xmlns="http://www.w3.org/2000/svg" height="48" width="48"><path d="M23.3 33.15 25.4 31.1 21.7 27.4H31.9V24.55H21.7L25.3 20.85L23.3 18.8L16.15 26ZM7.65 41.05Q5.7 41.05 4.375 39.7Q3.05 38.35 3.05 36.45V11.1Q3.05 9.25 4.375 7.85Q5.7 6.45 7.65 6.45H20.65L24.05 9.9H40.5Q42.35 9.9 43.725 11.275Q45.1 12.65 45.1 14.5V36.45Q45.1 38.35 43.725 39.7Q42.35 41.05 40.5 41.05ZM7.65 11.1V36.45Q7.65 36.45 7.65 36.45Q7.65 36.45 7.65 36.45H40.5Q40.5 36.45 40.5 36.45Q40.5 36.45 40.5 36.45V14.5Q40.5 14.5 40.5 14.5Q40.5 14.5 40.5 14.5H22.15L18.75 11.1H7.65Q7.65 11.1 7.65 11.1Q7.65 11.1 7.65 11.1ZM7.65 11.1Q7.65 11.1 7.65 11.1Q7.65 11.1 7.65 11.1V14.5Q7.65 14.5 7.65 14.5Q7.65 14.5 7.65 14.5V36.45Q7.65 36.45 7.65 36.45Q7.65 36.45 7.65 36.45Q7.65 36.45 7.65 36.45Q7.65 36.45 7.65 36.45Z"/></svg>
